COLOR/action 16/16/mesh-gradient.svg

<svg height="24" viewBox="0 0 24 24" width="24" xmlns="http://www.w3.org/2000/svg" xmlns:xlink="http://www.w3.org/1999/xlink"><linearGradient id="a" gradientUnits="userSpaceOnUse" x1="3.679391" x2="20.32079" y1="4.108997" y2="19.89083"><stop offset="0" stop-color="#2daaaa"/><stop offset="1" stop-color="#46a926"/></linearGradient><path d="m7.9047104 2.7496986c-1.075296.0670372-2.3133752.4033239-3.7955404 1.1444059l-.4297793.2148904.2148903.4297807c.9308973 1.8617941 1.1418217 3.1967318 1.0319651 4.295273-.1098958 1.0985543-.5522134 1.9914694-1.0319651 2.9509724-.4797517.959501-.9968982 1.985595-1.1269173 3.285798-.1300192 1.300204.1388081 2.84379 1.1269173 4.820007l.2148904.429782.4297807-.214891c1.8617946-.930898 3.1967323-1.141822 4.2952739-1.031966 1.0985549.109897 1.991466.552215 2.950968 1.031966.959505.479752 1.985598.996898 3.285803 1.126918 1.300204.130018 2.843789-.138808 4.820007-1.126918l.42978-.214891-.214889-.42978c-.930897-1.861782-1.141821-3.196732-1.031966-4.295273.109895-1.098542.552214-1.991469 1.031966-2.950972.47975-.959503.996886-1.985596 1.126917-3.2857995.130019-1.3002163-.138807-2.843788-1.126917-4.8200066l-.214891-.4297807-.429782.2148903c-1.861793.9308974-3.196719 1.1418217-4.295273 1.031965-1.098555-.1098951-1.991469-.5522133-2.950973-1.031965s-1.985595-.9968982-3.2857975-1.1269173c-.3250541-.0324952-.666036-.0397874-1.0244681-.017527z" fill="url(#a)"/><path d="m7.9042969 2.75c-1.075296.0670372-2.3127567.4034493-3.7949219 1.1445312l-.4296875.2148438.1992187.4003906.2304688-.1152344c1.4821652-.7410819 2.7196259-1.077494 3.7949219-1.1445312.3584321-.0222604.7003365-.0149171 1.0253906.0175781 1.3002025.1300191 2.3256525.6472014 3.2851565 1.1269531.959504.4797518 1.852617.9213549 2.951172 1.03125 1.098554.1098567 2.433129-.1003525 4.294922-1.03125l.429687-.2148437.214844.4296875c.729575 1.4591486 1.062418 2.6785733 1.136719 3.7421875.009635-1.1791122-.287885-2.5445204-1.136719-4.2421875l-.214844-.4296875-.429687.2148437c-1.861793.9308974-3.196368 1.1411067-4.294922 1.03125-1.098555-.1098951-1.991668-.5514983-2.951172-1.03125s-1.984954-.996934-3.2851565-1.1269531c-.3250541-.0324952-.6669585-.0398385-1.0253906-.0175781zm-2.9707031 5.6542969c-.0030605.1428669.0057046.2945195-.0078126.4296875-.1098958 1.0985543-.5514983 1.9916686-1.03125 2.9511716-.4797517.959501-.996934 1.984953-1.1269531 3.285156-.034019.340194-.0360952.699266-.0097656 1.076172.0016047-.193165-.0085338-.393176.0097656-.576172.1300191-1.300202.6472014-2.325655 1.1269531-3.285156.4797517-.959503.9213542-1.852616 1.03125-2.9511716.0290373-.2903657.0309696-.6009265.0078126-.9296875zm14.1328122 7.6914061c-.021811 1.018248.222706 2.232532 1.039063 3.865235l.015625.029296.199218-.099609-.214843-.429687c-.684843-1.369677-.974609-2.450191-1.039063-3.365235z" fill="#fff" opacity=".3"/><path d="m3.8789062 4.0097656-.1992187.0996094.2148437.4296875c.6848432 1.3696859.9746095 2.450193 1.0390626 3.3652344.0218127-1.0182457-.2227058-2.2325213-1.0390626-3.8652344zm17.3632818 3.8417969c-.001582.1934676.00856.3948572-.009766.578125-.130031 1.3002041-.647203 2.3256535-1.126953 3.2851565-.479752.959503-.921355 1.85263-1.03125 2.951172-.029037.290365-.03097.600925-.007813.929687.003061-.142867-.005704-.294519.007813-.429687.109895-1.098542.551498-1.991669 1.03125-2.951172.47975-.959503.996922-1.984953 1.126953-3.2851565.034021-.3402223.036102-.7011868.009766-1.078125zm-18.4843755 7.7949215c-.0097968 1.179297.2876797 2.546064 1.1367187 4.244141l.2148438.429687.4296875-.214843c1.8617946-.930898 3.1963803-1.141106 4.2949219-1.03125 1.0985549.109897 1.9916696.551499 2.9511716 1.03125.959505.479752 1.984951.996933 3.285156 1.126953 1.300205.130018 2.844095-.138843 4.820313-1.126953l.429687-.214844-.199218-.400391-.230469.115235c-1.976218.98811-3.520108 1.256971-4.820313 1.126953-1.300205-.13002-2.325651-.647201-3.285156-1.126953-.959502-.479751-1.8526167-.921353-2.9511716-1.03125-1.0985416-.109856-2.4331273.100352-4.2949219 1.03125l-.4296875.214843-.2148438-.429687c-.7295742-1.459147-1.0624176-2.680527-1.1367187-3.744141z" opacity=".2"/><g transform="matrix(1.1578947 0 0 1.1578947 -26.102585 -12.826047)"><path d="m23.406779 11.940678v.5 4.5h5v-5zm1 1h3v3h-3zm13 13v.5 4.5h5v-5zm1 1h3v3h-3z" fill="#595959"/><g fill="#fff"><path d="m24.406778 12.940678h3v3h-3z"/><path d="m38.40678 26.940678h3v3h-3z"/></g></g><g transform="matrix(0 -1.1578947 1.1578947 0 -12.826048 50.102582)"><path d="m23.406779 11.940678v.5 4.5h5v-5zm1 1h3v3h-3zm13 13v.5 4.5h5v-5zm1 1h3v3h-3z" fill="#595959"/><g fill="#fff"><path d="m24.406778 12.940678h3v3h-3z"/><path d="m38.40678 26.940678h3v3h-3z"/></g></g></svg>

<?xml version="1.0" encoding="UTF-8" standalone="no"?>
<svg
   xmlns:dc="http://purl.org/dc/elements/1.1/"
   xmlns:cc="http://creativecommons.org/ns#"
   xmlns:rdf="http://www.w3.org/1999/02/22-rdf-syntax-ns#"
   xmlns:svg="http://www.w3.org/2000/svg"
   xmlns="http://www.w3.org/2000/svg"
   xmlns:sodipodi="http://sodipodi.sourceforge.net/DTD/sodipodi-0.dtd"
   xmlns:inkscape="http://www.inkscape.org/namespaces/inkscape"
   height="24"
   viewBox="0 0 24 24"
   width="24"
   version="1.1"
   id="svg29"
   sodipodi:docname="mesh-gradient.svg"
   inkscape:version="0.92.4 (5da689c313, 2019-01-14)">
  <metadata
     id="metadata35">
    <rdf:RDF>
      <cc:Work
         rdf:about="">
        <dc:format>image/svg+xml</dc:format>
        <dc:type
           rdf:resource="http://purl.org/dc/dcmitype/StillImage" />
      </cc:Work>
    </rdf:RDF>
  </metadata>
  <defs
     id="defs33" />
  <sodipodi:namedview
     pagecolor="#ffffff"
     bordercolor="#808080"
     borderopacity="1"
     objecttolerance="10"
     gridtolerance="10"
     guidetolerance="10"
     inkscape:pageopacity="0"
     inkscape:pageshadow="2"
     inkscape:window-width="1920"
     inkscape:window-height="1016"
     id="namedview31"
     showgrid="false"
     inkscape:zoom="9.8333333"
     inkscape:cx="12"
     inkscape:cy="12"
     inkscape:window-x="0"
     inkscape:window-y="27"
     inkscape:window-maximized="1"
     inkscape:current-layer="svg29" />
  <linearGradient
     id="a"
     gradientUnits="userSpaceOnUse"
     x1="3.67939123441"
     x2="20.32079010423"
     y1="4.10899668379"
     y2="19.89083002376">
    <stop
       offset="0"
       stop-color="#2daaaa"
       id="stop2" />
    <stop
       offset="1"
       stop-color="#46a926"
       id="stop4" />
  </linearGradient>
  <path
     d="m7.9047104 2.7496986c-1.075296.0670372-2.3133752.4033239-3.7955404 1.1444059l-.4297793.2148904.2148903.4297807c.9308973 1.8617941 1.1418217 3.1967318 1.0319651 4.295273-.1098958 1.0985543-.5522134 1.9914694-1.0319651 2.9509724-.4797517.959501-.9968982 1.985595-1.1269173 3.285798-.1300192 1.300204.1388081 2.84379 1.1269173 4.820007l.2148904.429782.4297807-.214891c1.8617946-.930898 3.1967323-1.141822 4.2952739-1.031966 1.0985549.109897 1.991466.552215 2.950968 1.031966.959505.479752 1.985598.996898 3.285803 1.126918 1.300204.130018 2.843789-.138808 4.820007-1.126918l.42978-.214891-.214889-.42978c-.930897-1.861782-1.141821-3.196732-1.031966-4.295273.109895-1.098542.552214-1.991469 1.031966-2.950972.47975-.959503.996886-1.985596 1.126917-3.2857995.130019-1.3002163-.138807-2.843788-1.126917-4.8200066l-.214891-.4297807-.429782.2148903c-1.861793.9308974-3.196719 1.1418217-4.295273 1.031965-1.098555-.1098951-1.991469-.5522133-2.950973-1.031965s-1.985595-.9968982-3.2857975-1.1269173c-.3250541-.0324952-.666036-.0397874-1.0244681-.017527z"
     fill="url(#a)"
     id="path7" />
  <path
     style="fill:#ffffff;fill-opacity:1;opacity:0.3"
     d="M 7.9042969 2.75 C 6.8290009 2.8170372 5.5915402 3.1534493 4.109375 3.8945312 L 3.6796875 4.109375 L 3.8789062 4.5097656 L 4.109375 4.3945312 C 5.5915402 3.6534493 6.8290009 3.3170372 7.9042969 3.25 C 8.262729 3.2277396 8.6046334 3.2350829 8.9296875 3.2675781 C 10.22989 3.3975972 11.25534 3.9147795 12.214844 4.3945312 C 13.174348 4.874283 14.067461 5.3158861 15.166016 5.4257812 C 16.26457 5.5356379 17.599145 5.3254287 19.460938 4.3945312 L 19.890625 4.1796875 L 20.105469 4.609375 C 20.835044 6.0685236 21.167887 7.2879483 21.242188 8.3515625 C 21.251823 7.1724503 20.954303 5.8070421 20.105469 4.109375 L 19.890625 3.6796875 L 19.460938 3.8945312 C 17.599145 4.8254286 16.26457 5.0356379 15.166016 4.9257812 C 14.067461 4.8158861 13.174348 4.3742829 12.214844 3.8945312 C 11.25534 3.4147795 10.22989 2.8975972 8.9296875 2.7675781 C 8.6046334 2.7350829 8.262729 2.7277396 7.9042969 2.75 z M 4.9335938 8.4042969 C 4.9305333 8.5471638 4.9392984 8.6988164 4.9257812 8.8339844 C 4.8158854 9.9325387 4.3742829 10.825653 3.8945312 11.785156 C 3.4147795 12.744657 2.8975972 13.770109 2.7675781 15.070312 C 2.7335591 15.410506 2.7314829 15.769578 2.7578125 16.146484 C 2.7594172 15.953319 2.7492787 15.753308 2.7675781 15.570312 C 2.8975972 14.27011 3.4147795 13.244657 3.8945312 12.285156 C 4.3742829 11.325653 4.8158854 10.43254 4.9257812 9.3339844 C 4.9548185 9.0436187 4.9567508 8.7330579 4.9335938 8.4042969 z M 19.066406 16.095703 C 19.044595 17.113951 19.289112 18.328235 20.105469 19.960938 L 20.121094 19.990234 L 20.320312 19.890625 L 20.105469 19.460938 C 19.420626 18.091261 19.13086 17.010747 19.066406 16.095703 z "
     id="path842" />
  <path
     style="fill:#000000;fill-opacity:1;opacity:0.2"
     d="M 3.8789062 4.0097656 L 3.6796875 4.109375 L 3.8945312 4.5390625 C 4.5793744 5.9087484 4.8691407 6.9892555 4.9335938 7.9042969 C 4.9554065 6.8860512 4.710888 5.6717756 3.8945312 4.0390625 L 3.8789062 4.0097656 z M 21.242188 7.8515625 C 21.240606 8.0450301 21.250748 8.2464197 21.232422 8.4296875 C 21.102391 9.7298916 20.585219 10.755341 20.105469 11.714844 C 19.625717 12.674347 19.184114 13.567474 19.074219 14.666016 C 19.045182 14.956381 19.043249 15.266941 19.066406 15.595703 C 19.069467 15.452836 19.060702 15.301184 19.074219 15.166016 C 19.184114 14.067474 19.625717 13.174347 20.105469 12.214844 C 20.585219 11.255341 21.102391 10.229891 21.232422 8.9296875 C 21.266443 8.5894652 21.268524 8.2285007 21.242188 7.8515625 z M 2.7578125 15.646484 C 2.7480157 16.825781 3.0454922 18.192548 3.8945312 19.890625 L 4.109375 20.320312 L 4.5390625 20.105469 C 6.4008571 19.174571 7.7354428 18.964363 8.8339844 19.074219 C 9.9325393 19.184116 10.825654 19.625718 11.785156 20.105469 C 12.744661 20.585221 13.770107 21.102402 15.070312 21.232422 C 16.370517 21.36244 17.914407 21.093579 19.890625 20.105469 L 20.320312 19.890625 L 20.121094 19.490234 L 19.890625 19.605469 C 17.914407 20.593579 16.370517 20.86244 15.070312 20.732422 C 13.770107 20.602402 12.744661 20.085221 11.785156 19.605469 C 10.825654 19.125718 9.9325393 18.684116 8.8339844 18.574219 C 7.7354428 18.464363 6.4008571 18.674571 4.5390625 19.605469 L 4.109375 19.820312 L 3.8945312 19.390625 C 3.164957 17.931478 2.8321136 16.710098 2.7578125 15.646484 z "
     id="path851" />
  <g
     transform="matrix(1.1578947 0 0 1.1578947 -26.102585 -12.826047)"
     id="g17">
    <path
       d="m23.406779 11.940678v.5 4.5h5v-5zm1 1h3v3h-3zm13 13v.5 4.5h5v-5zm1 1h3v3h-3z"
       fill="#595959"
       id="path9" />
    <g
       fill="#fff"
       id="g15">
      <path
         d="m24.406778 12.940678h3v3h-3z"
         id="path11" />
      <path
         d="m38.40678 26.940678h3v3h-3z"
         id="path13" />
    </g>
  </g>
  <g
     transform="matrix(0 -1.1578947 1.1578947 0 -12.826048 50.102582)"
     id="g27">
    <path
       d="m23.406779 11.940678v.5 4.5h5v-5zm1 1h3v3h-3zm13 13v.5 4.5h5v-5zm1 1h3v3h-3z"
       fill="#595959"
       id="path19" />
    <g
       fill="#fff"
       id="g25">
      <path
         d="m24.406778 12.940678h3v3h-3z"
         id="path21" />
      <path
         d="m38.40678 26.940678h3v3h-3z"
         id="path23" />
    </g>
  </g>
</svg>
